svg/u1f3a5.svg

<svg viewBox="0 0 128 128" xmlns="http://www.w3.org/2000/svg">
  <path d="M32,80L20,64h-8c-4.42,0-8,3.58-8,8v44c0,4.42,3.58,8,8,8h8l12-16h20V80H32z" fill="#595858"/>
  <rect fill="#3A3A3A" height="60" width="3" x="16" y="64"/>
  <path d="M121.11,73.45L116,76h-16v12h16l5.11,2.55c1.33,0.66,2.89-0.3,2.89-1.79V75.24 C124,73.75,122.44,72.78,121.11,73.45z" fill="#595858"/>
  <rect fill="#3F3F3F" height="28" width="28" x="64" y="48"/>
  <g opacity="0.5">
    <rect fill="#787676" height="28" width="3" x="31.5" y="80"/>
  </g>
  <rect fill="#3A3A3A" height="28" width="3" x="40.75" y="80"/>
  <circle cx="48" cy="36" fill="#504F4F" r="32"/>
  <circle cx="101" cy="46" fill="#504F4F" r="22"/>
  <path d="M104,120H52c-4.42,0-8-3.58-8-8V76c0-4.42,3.58-8,8-8h52c4.42,0,8,3.58,8,8v36 C112,116.42,108.42,120,104,120z" fill="#504F4F"/>
  <g>
    <path d="M54,94c1.1,0,2,0.9,2,2s-0.9,2-2,2s-2-0.9-2-2S52.9,94,54,94 M54,92c-2.21,0-4,1.79-4,4s1.79,4,4,4 s4-1.79,4-4S56.21,92,54,92z" fill="#3A3A3A"/>
    <path d="M54,102c1.1,0,2,0.9,2,2s-0.9,2-2,2s-2-0.9-2-2S52.9,102,54,102 M54,100c-2.21,0-4,1.79-4,4 s1.79,4,4,4s4-1.79,4-4S56.21,100,54,100z" fill="#3A3A3A"/>
  </g>
  <g>
    <path d="M64,107c-1.65,0-3-1.35-3-3v-8c0-1.65,1.35-3,3-3h32c1.65,0,3,1.35,3,3v8c0,1.65-1.35,3-3,3H64z" fill="#504F4F"/>
    <path d="M96,94.5c0.83,0,1.5,0.67,1.5,1.5v8c0,0.83-0.67,1.5-1.5,1.5H64c-0.83,0-1.5-0.67-1.5-1.5v-8 c0-0.83,0.67-1.5,1.5-1.5H96 M96,91.5H64c-2.48,0-4.5,2.02-4.5,4.5v8c0,2.48,2.02,4.5,4.5,4.5h32c2.48,0,4.5-2.02,4.5-4.5v-8 C100.5,93.52,98.48,91.5,96,91.5L96,91.5z" fill="#3A3A3A"/>
  </g>
  <g>
    <circle cx="48" cy="36" fill="#504F4F" r="22.5"/>
    <path d="M48,15c11.58,0,21,9.42,21,21s-9.42,21-21,21s-21-9.42-21-21S36.42,15,48,15 M48,12 c-13.25,0-24,10.75-24,24s10.75,24,24,24s24-10.75,24-24S61.25,12,48,12L48,12z" fill="#3A3A3A"/>
  </g>
  <g>
    <circle cx="101" cy="46" fill="#504F4F" r="12.5"/>
    <path d="M101,35c6.07,0,11,4.93,11,11s-4.93,11-11,11s-11-4.93-11-11S94.93,35,101,35 M101,32 c-7.73,0-14,6.27-14,14s6.27,14,14,14s14-6.27,14-14S108.73,32,101,32L101,32z" fill="#3A3A3A"/>
  </g>
  <circle cx="48" cy="36" fill="#636262" r="8"/>
  <circle cx="101" cy="46" fill="#636262" r="8"/>
  <linearGradient id="SVGID_1_" gradientTransform="matrix(1 0 0 -1 0 127.8898)" gradientUnits="userSpaceOnUse" x1="54" x2="54" y1="34.1398" y2="30.1218">
    <stop offset="0" stop-color="#FF1744"/>
    <stop offset="1" stop-color="#D50000"/>
  </linearGradient>
  <circle cx="54" cy="96" fill="url(#SVGID_1_)" r="2"/>
  <linearGradient id="SVGID_2_" gradientTransform="matrix(1 0 0 -1 0 127.8898)" gradientUnits="userSpaceOnUse" x1="54" x2="54" y1="26.1398" y2="22.1198">
    <stop offset="0" stop-color="#76FF03"/>
    <stop offset="1" stop-color="#64DD17"/>
  </linearGradient>
  <circle cx="54" cy="104" fill="url(#SVGID_2_)" r="2"/>
</svg>

<svg viewBox="0 0 128 128" xmlns="http://www.w3.org/2000/svg">
  <defs>
    <linearGradient id="SVGID_1_" gradientTransform="matrix(1 0 0 -1 0 0)" gradientUnits="userSpaceOnUse" x1="54" x2="54" y1="-93.75" y2="-97.768">
      <stop offset="0" stop-color="#FF1744"/>
      <stop offset="1" stop-color="#D50000"/>
    </linearGradient>
    <linearGradient id="SVGID_2_" gradientTransform="matrix(1 0 0 -1 0 0)" gradientUnits="userSpaceOnUse" x1="54" x2="54" y1="-101.75" y2="-105.77">
      <stop offset="0" stop-color="#76FF03"/>
      <stop offset="1" stop-color="#64DD17"/>
    </linearGradient>
  </defs>
  <path d="M32,80 L20,64 L12,64 C7.58,64 4,67.58 4,72 L4,116 C4,120.42 7.58,124 12,124 L20,124 L32,108 L52,108 L52,80 L32,80 Z" fill="#595858"/>
  <path d="M16,64 L19,64 L19,124 L16,124 L16,64 Z" fill="#3A3A3A"/>
  <path d="M121.11,73.45 L116,76 L100,76 L100,88 L116,88 L121.11,90.55 C122.44,91.21 124,90.25 124,88.76 L124,75.24 C124,73.75 122.44,72.78 121.11,73.45 Z" fill="#595858"/>
  <path d="M64,48 L92,48 L92,76 L64,76 L64,48 Z" fill="#3F3F3F"/>
  <path d="M31.5,80 L34.5,80 L34.5,108 L31.5,108 L31.5,80 Z" fill="#787676" opacity="0.5"/>
  <path d="M40.75,80 L43.75,80 L43.75,108 L40.75,108 L40.75,80 Z" fill="#3A3A3A"/>
  <path d="M80,36 A32 32 0 1 1 16,36 A32 32 0 1 1 80,36 Z" fill="#504F4F"/>
  <path d="M123,46 A22 22 0 1 1 79,46 A22 22 0 1 1 123,46 Z" fill="#504F4F"/>
  <path d="M104,120 L52,120 C47.58,120 44,116.42 44,112 L44,76 C44,71.58 47.58,68 52,68 L104,68 C108.42,68 112,71.58 112,76 L112,112 C112,116.42 108.42,120 104,120 Z" fill="#504F4F"/>
  <path d="M54,94 C55.1,94 56,94.9 56,96 C56,97.1 55.1,98 54,98 C52.9,98 52,97.1 52,96 C52,94.9 52.9,94 54,94 M54,92 C51.79,92 50,93.79 50,96 C50,98.21 51.79,100 54,100 C56.21,100 58,98.21 58,96 C58,93.79 56.21,92 54,92 Z" fill="#3A3A3A"/>
  <path d="M54,102 C55.1,102 56,102.9 56,104 C56,105.1 55.1,106 54,106 C52.9,106 52,105.1 52,104 C52,102.9 52.9,102 54,102 M54,100 C51.79,100 50,101.79 50,104 C50,106.21 51.79,108 54,108 C56.21,108 58,106.21 58,104 C58,101.79 56.21,100 54,100 Z" fill="#3A3A3A"/>
  <path d="M64,107 C62.35,107 61,105.65 61,104 L61,96 C61,94.35 62.35,93 64,93 L96,93 C97.65,93 99,94.35 99,96 L99,104 C99,105.65 97.65,107 96,107 L64,107 Z" fill="#504F4F"/>
  <path d="M96,94.5 C96.83,94.5 97.5,95.17 97.5,96 L97.5,104 C97.5,104.83 96.83,105.5 96,105.5 L64,105.5 C63.17,105.5 62.5,104.83 62.5,104 L62.5,96 C62.5,95.17 63.17,94.5 64,94.5 L96,94.5 M96,91.5 L64,91.5 C61.52,91.5 59.5,93.52 59.5,96 L59.5,104 C59.5,106.48 61.52,108.5 64,108.5 L96,108.5 C98.48,108.5 100.5,106.48 100.5,104 L100.5,96 C100.5,93.52 98.48,91.5 96,91.5 L96,91.5 Z" fill="#3A3A3A"/>
  <path d="M70.5,36 A22.5 22.5 0 1 1 25.5,36 A22.5 22.5 0 1 1 70.5,36 Z" fill="#504F4F"/>
  <path d="M48,15 C59.58,15 69,24.42 69,36 C69,47.58 59.58,57 48,57 C36.42,57 27,47.58 27,36 C27,24.42 36.42,15 48,15 M48,12 C34.75,12 24,22.75 24,36 C24,49.25 34.75,60 48,60 C61.25,60 72,49.25 72,36 C72,22.75 61.25,12 48,12 L48,12 Z" fill="#3A3A3A"/>
  <path d="M113.5,46 A12.5 12.5 0 1 1 88.5,46 A12.5 12.5 0 1 1 113.5,46 Z" fill="#504F4F"/>
  <path d="M101,35 C107.07,35 112,39.93 112,46 C112,52.07 107.07,57 101,57 C94.93,57 90,52.07 90,46 C90,39.93 94.93,35 101,35 M101,32 C93.27,32 87,38.27 87,46 C87,53.73 93.27,60 101,60 C108.73,60 115,53.73 115,46 C115,38.27 108.73,32 101,32 L101,32 Z" fill="#3A3A3A"/>
  <path d="M56,36 A8 8 0 1 1 40,36 A8 8 0 1 1 56,36 Z" fill="#636262"/>
  <path d="M109,46 A8 8 0 1 1 93,46 A8 8 0 1 1 109,46 Z" fill="#636262"/>
  <path d="M56,96 A2 2 0 1 1 52,96 A2 2 0 1 1 56,96 Z" fill="url(#SVGID_1_)"/>
  <path d="M56,104 A2 2 0 1 1 52,104 A2 2 0 1 1 56,104 Z" fill="url(#SVGID_2_)"/>
</svg>
